dist/img/svg/ic_vk.svg

<svg width="19" height="11" viewBox="0 0 19 11"  xmlns="http://www.w3.org/2000/svg">
<path d="M17.5696 8.05876C17.177 7.64509 16.7309 7.27434 16.2995 6.91579C16.1461 6.78827 15.9875 6.65644 15.8345 6.52534C15.3956 6.14858 15.3796 6.00703 15.7271 5.57908C15.9676 5.28409 16.2225 4.98871 16.4691 4.70304C16.6927 4.44386 16.924 4.17584 17.1456 3.90695L17.1912 3.85166C17.6148 3.3371 18.0529 2.80502 18.2861 2.16315C18.3466 1.99381 18.4102 1.74461 18.2648 1.53623C18.1196 1.32802 17.8378 1.2645 17.6384 1.23483C17.5398 1.22015 17.4419 1.21815 17.351 1.21815L14.5767 1.2164L14.5538 1.21623C14.1343 1.21623 13.8516 1.38975 13.6896 1.74678C13.535 2.08791 13.3651 2.45117 13.1713 2.79656C12.7855 3.48435 12.2956 4.27652 11.5866 4.93721L11.5566 4.96531C11.4729 5.0443 11.3781 5.13374 11.3087 5.13374C11.2981 5.13374 11.2866 5.13195 11.2735 5.12834C11.1266 5.07811 11.028 4.76604 11.0325 4.62087C11.0326 4.61887 11.0326 4.61687 11.0326 4.61486L11.0307 1.80002C11.0307 1.79026 11.0299 1.78059 11.0284 1.77092C10.9579 1.31334 10.8015 1.0285 10.2109 0.926947C10.1952 0.924202 10.1791 0.922852 10.1632 0.922852H7.27843C6.80844 0.922852 6.54948 1.09054 6.30605 1.34153C6.24034 1.40862 6.10357 1.54829 6.17136 1.71772C6.24015 1.88968 6.46343 1.92645 6.53613 1.93839C6.89703 1.99869 7.10046 2.19247 7.15808 2.53107C7.25868 3.11905 7.27104 3.74662 7.19699 4.50612C7.17634 4.7172 7.1355 4.88023 7.0682 5.01951C7.05257 5.05201 6.99713 5.15809 6.94061 5.15814C6.92264 5.15814 6.87068 5.15195 6.77604 5.0947C6.55226 4.96013 6.38854 4.76809 6.19766 4.53086C5.54832 3.72527 5.00334 2.83782 4.53137 1.81719C4.35633 1.44147 4.02943 1.23113 3.61046 1.22494C3.1501 1.2188 2.73273 1.21584 2.33465 1.21584C1.8997 1.21584 1.49647 1.21937 1.10271 1.22655C0.765636 1.23178 0.532479 1.32048 0.409797 1.49039C0.286916 1.66043 0.294906 1.8838 0.433569 2.15418C1.54357 4.32044 2.54999 5.8955 3.69691 7.2614C4.50055 8.21717 5.30663 8.87873 6.2334 9.34319C7.20979 9.83353 8.30401 10.0719 9.57848 10.0719C9.72295 10.0719 9.87233 10.0688 10.023 10.0626C10.7635 10.031 11.0383 9.79567 11.073 9.16269C11.0895 8.83921 11.1298 8.49996 11.311 8.21063C11.4253 8.02835 11.5319 8.02835 11.567 8.02835C11.6345 8.02835 11.7181 8.05562 11.808 8.10673C11.9692 8.19909 12.1074 8.32282 12.2207 8.43091C12.3274 8.53359 12.4328 8.63732 12.5384 8.7411C12.7662 8.96508 13.0017 9.19663 13.2478 9.41625C13.7864 9.89727 14.3797 10.1088 15.0611 10.0629H17.6047C17.6101 10.0629 17.6156 10.0627 17.621 10.0624C17.8744 10.0478 18.0939 9.92433 18.2232 9.72383C18.3834 9.47546 18.3802 9.1586 18.2146 8.87603C18.0268 8.55651 17.7831 8.28352 17.5696 8.05876Z" />
</svg>

<svg width="19" height="11" viewBox="0 0 19 11" xmlns="http://www.w3.org/2000/svg"><path d="M17.57 8.059c-.393-.414-.84-.785-1.27-1.143-.154-.128-.313-.26-.466-.39-.438-.377-.454-.519-.107-.947.24-.295.495-.59.742-.876.224-.26.455-.527.677-.796l.045-.055c.424-.515.862-1.047 1.095-1.689.06-.17.124-.418-.021-.627-.145-.208-.427-.272-.627-.301a1.946 1.946 0 00-.287-.017l-2.774-.002h-.023c-.42 0-.702.174-.864.53a13.74 13.74 0 01-.519 1.05c-.385.688-.875 1.48-1.584 2.141l-.03.028c-.084.08-.179.169-.248.169a.133.133 0 01-.035-.006c-.147-.05-.246-.362-.241-.507v-.006L11.03 1.8l-.003-.03c-.07-.457-.226-.742-.817-.843a.278.278 0 00-.048-.004H7.278c-.47 0-.729.168-.972.419-.066.067-.202.206-.135.376.07.172.292.208.365.22.361.06.564.254.622.593.1.588.113 1.216.039 1.975a1.49 1.49 0 01-.129.514c-.015.032-.07.138-.127.138-.018 0-.07-.006-.165-.063-.224-.135-.387-.327-.578-.564A12.863 12.863 0 014.53 1.817a.986.986 0 00-.92-.592c-.46-.006-.878-.01-1.276-.01-.435 0-.839.004-1.232.012-.337.005-.57.093-.693.263s-.115.394.024.664C1.544 4.32 2.55 5.896 3.697 7.261c.804.956 1.61 1.618 2.536 2.082.977.49 2.071.729 3.345.729.145 0 .294-.003.445-.01.74-.031 1.015-.266 1.05-.9.016-.323.057-.662.238-.951.114-.183.22-.183.256-.183a.52.52 0 01.241.079c.161.092.3.216.413.324l.317.31c.228.224.464.456.71.675.538.481 1.132.693 1.813.647h2.56a.755.755 0 00.602-.34c.16-.248.157-.564-.008-.847a4.587 4.587 0 00-.645-.817z"/></svg>
